src/topics/icons/fly.svg

<svg height="400" preserveAspectRatio="xMidYMid" viewBox="0 0 256 400" width="256" xmlns="http://www.w3.org/2000/svg" xmlns:xlink="http://www.w3.org/1999/xlink"><linearGradient id="a" x1="14.882517%" x2="81.606256%" y1="9.005265%" y2="56.899723%"><stop offset="0" stop-color="#3285ef"/><stop offset="1" stop-color="#a63ee1"/></linearGradient><path d="m128.730479 331.333807c.466506.137676.958043.210497 1.400655.414166.442611.202532.820366.524534 1.226568.79306l.078509.067131.398236.352723.681554.613285c1.004693.910254 1.994595 1.836438 2.973119 2.775138 1.828474 1.75224 3.615986 3.547717 5.357986 5.386432 1.89788 2.003698 3.743422 4.059735 5.509316 6.179491 1.144645 1.373346 2.257431 2.772863 3.323567 4.206514 1.025174 1.374484 2.009387 2.780827 2.935571 4.224719.824918 1.28801 1.606599 2.605603 2.317735 3.958469.624663 1.184469 1.196985 2.398521 1.694212 3.642156.86019 2.152753 1.504195 4.413597 1.720381 6.726782.039824.428957.064856.857915.073958 1.286872.007965.378894.003414.756649-.005689 1.134405-.017067.64173-.054615 1.282321-.111506 1.921775-.234391 2.564642-.820367 5.099701-1.789788 7.487982-.66221 1.630493-1.499645 3.190442-2.497511 4.640023-.815816 1.185606-1.736311 2.297255-2.746693 3.322429-.801025.81354-1.660077 1.573602-2.563505 2.273361-.722515.559806-1.474612 1.083203-2.249467 1.567913-.631489.393685-1.278907.763476-1.93998 1.109373-3.86403 2.016214-8.147916 3.160859-12.476177 3.587541-.667899.065993-1.336936.113782-2.008249.146778-.739582.036411-1.479164.051202-2.219883.048927-1.529228-.006827-3.058456-.095577-4.578581-.274215-2.531645-.29697-5.038259-.843123-7.451571-1.669179-2.073105-.709999-4.076803-1.629356-5.95079-2.76945-2.00256-1.218603-3.851514-2.688664-5.462665-4.391978-1.069549-1.130991-2.033281-2.363248-2.86844-3.677428-.789646-1.240222-1.464372-2.552127-2.0173516-3.914095-.9216327-2.271085-1.4985066-4.674157-1.75224-7.110226-.0807851-.763476-.1297113-1.531504-.1479164-2.299531-.0170673-.613284-.0159295-1.22543.0216185-1.838714.0694069-1.121889.2434931-2.234675.4972266-3.329256.2799033-1.20495.6553833-2.389419 1.0991324-3.545442.4494382-1.173091.9682835-2.320011 1.5349165-3.4419.68838-1.358555 1.448443-2.682976 2.256294-3.976675.864742-1.382449 1.785237-2.731901 2.744417-4.050633 1.476889-2.033281 3.047078-4.000569 4.676433-5.913241 1.714692-2.015076 3.495378-3.972124 5.326128-5.881383 1.628217-1.6999 3.295121-3.361115 4.998435-4.987057.708861-.67814 1.424548-1.349452 2.147063-2.011663.554118-.508604 1.112786-1.013796 1.678282-1.511022l.077372-.067131c1.222016-.790784 1.233395-.795335 2.627222-1.207226zm2.309771-331.27805391 3.433936.07964728 1.522401.09557673 9.31418.75209785 12.85507 1.79889063.935287.20708292 12.468212 3.06642014 3.515858 1.03427677 3.992604 1.35855497 4.86076 1.81937132 3.770729 1.5770161 5.860902 2.7455554 3.279192 1.6543877 6.635756 3.8640307 2.029868 1.2197412 9.05362 6.5401792 2.21078 1.9251884 6.238658 5.640165 5.356848 5.690229 1.470061 1.621391 6.28417 8.2639738.942114 1.4814394 4.840279 8.0864742 1.358555 2.5782961 2.730763 6.0110937 2.841132 7.0021334.942114 2.7205234 3.03001 10.9332954 2.365524 14.7848102.41189 4.59451.377756 6.601621.030721.960319-.137676 7.379889-.087612 1.388138-.360688 2.916228-2.079932 11.78097-.314038 1.433651-4.79249 14.80074-4.450007 10.668184-5.666335 11.221163-10.151615 17.524677-5.223723 7.891907-6.323994 9.36652-4.559237 6.190869-8.898877 11.790072-6.098706 7.600626-9.025174 10.890058-6.303513 7.296828-9.79889 10.933296-6.168113 6.700611-18.228986 18.857062-.413028.423268-9.764756 9.50761-5.398948 5.083771-.332243.304936-.418717.392547-.534774.376618-.390272.175224-1.067273.353861-2.546438-.108092-.226425-.076234-1.384725-.867018-.1775-.164983-.178637-.162708-.728204-.671313c-.671313-.623524-1.34035-1.247049-2.008249-1.873987l-.15133-.144503-17.886503-17.594083-5.5354854-5.68454-14.153321-15.074954-3.373631-3.65581-17.0649979-19.755938-4.7754231-5.863177-15.0260276-19.381596-1.4905419-1.97639-11.4191438-16.656521-3.0960034-4.950647-8.1979804-13.948514-2.3871426-4.325985-7.1659793-14.977101-1.13440474-2.934434-4.11548855-11.464656-1.42341061-4.875551-1.15602333-4.71967-.97852368-5.153179-.78395676-5.765325-.30265965-3.509031-.14222728-6.57659.02958327-1.119613.16953492-3.547717 1.4290997-14.3456125.33793202-1.8512303 3.26098705-14.3194425.06940692-.2662494.54046366-1.5986347 2.27904992-6.6186886.70430949-1.6680416 3.71042525-8.0944389 2.522543-4.7185322 3.5602333-5.8438344 3.5545441-5.1907268 2.4736169-3.242782 2.9116768-3.4646565 3.180202-3.4839994 2.5930878-2.6010525 6.8394254-5.9667188 5.107666-4.1371071 6.0429527-4.0574598 4.2964016-2.7273504 9.1161997-4.7594936 12.9335798-5.31930027.6485564-.25714692 11.4987911-3.32925615 4.5114493-.99900441 6.2079359-1.23794623 4.209928-.6360404 6.486702-.80102403 4.3806-.38458257 8.732755-.47105675h.014791l.038686-.00113781 3.24392-.03413455.327692.00113782.030721-.00568909.246906-.00227564zm-7.371924 20.34191441c-1.301664.1365382-2.595363.3151756-3.87996.5620822-1.922913.3686531-3.820794.8738444-5.673162 1.5076091-1.999147.6815532-3.943678 1.5132983-5.822216 2.4770303-1.245911.6405917-2.459963 1.3380743-3.642156 2.0901721-8.7998862 5.5946523-15.5130138 13.9610298-20.4659365 23.0374058-.8271939 1.5155739-1.6031859 3.0595932-2.3370787 4.6218177-.8738444 1.8614706-1.6873844 3.7513867-2.4463092 5.6640591-.9876262 2.4952354-1.8830892 5.0291566-2.6920779 7.5903855-.9910397 3.1392405-1.8535059 6.3183046-2.6021903 9.5246764-.9421135 4.0347035-1.7067274 8.1103684-2.322287 12.206514-.7816812 5.2089319-1.3187314 10.4531363-1.6566634 15.7087183-.2139098 3.338359-.3436211 6.682407-.4073389 10.027592-.075096 3.846964-.0466506 7.692789.2241502 11.531788.6349025 8.988764 2.1857488 17.889916 4.2133409 26.662495 2.5532641 11.05618 5.8802446 21.93486 9.6373204 32.637178 4.7196701 13.446736 10.1311336 26.645427 15.9806571 39.638174 7.2296973 16.063718 15.1443603 31.804295 23.5528373 47.282037l.638316 1.163988v-253.962168zm33.250462.638316c1.092306.7350306 2.158441 1.5098848 3.197269 2.3177357 9.531504 7.4208506 16.580288 17.6111507 21.619685 28.4989333.927322 2.0025601 1.789788 4.0358413 2.59195 6.0918789 1.050206 2.6898023 2.003698 5.420566 2.851372 8.1797752 3.947092 12.8459679 5.994027 26.2005405 6.80074 39.5960744.200256 3.325843.324278 6.656237.376618 9.987769.042099 2.60219.048926 5.206656-.039824 7.809984-.097852 2.847959-.307211 5.692505-.596217 8.527948-.664486 6.514009-1.749964 12.99047-3.126724 19.390698-1.605462 7.468639-3.554544 14.853079-5.76305 22.164699-2.949225 9.763618-6.342199 19.388423-10.031005 28.896032-3.361115 8.658797-6.966861 17.220879-10.763761 25.697625-6.820082 15.230835-14.253449 30.180628-22.140805 44.885791l1.427962-1.460958c11.127862-11.462381 21.903001-23.27521 32.21391-35.480586 9.860333-11.672878 19.304224-23.714408 28.039255-36.25544 7.087469-10.175509 13.706158-20.692363 19.448727-31.691652 2.587398-4.952922 4.976817-10.009387 7.094296-15.180771 1.703314-4.155312 3.226853-8.391409 4.472764-12.706016 1.522401-5.271512 2.668184-10.667046 3.101692-16.143365.19343-2.442896.208221-4.894894.154744-7.344617-.056891-2.629498-.192292-5.258995-.413028-7.881667-.841986-10.0036974-2.956052-19.9300237-6.595933-29.2976812-2.469065-6.3547148-5.639027-12.4386289-9.471199-18.0799317-6.491253-9.5542597-14.884938-17.7306216-24.461954-24.1706728-7.068127-4.7526667-14.751813-8.5620822-22.7484-11.4805859-5.617408-2.0503485-11.385009-3.6614991-17.239084-4.8709999z" fill="url(#a)"/></svg>

<?xml version="1.0" encoding="UTF-8"?>
<svg width="256px" height="400px" viewBox="0 0 256 400" version="1.1" xmlns="http://www.w3.org/2000/svg" xmlns:xlink="http://www.w3.org/1999/xlink" preserveAspectRatio="xMidYMid">
    <defs>
        <linearGradient x1="14.8825173%" y1="9.00526505%" x2="81.6062563%" y2="56.899723%" id="linearGradient-1">
            <stop stop-color="#3285EF" offset="0%"></stop>
            <stop stop-color="#A63EE1" offset="100%"></stop>
        </linearGradient>
    </defs>
    <g>
        <path d="M128.730479,331.333807 C129.196985,331.471483 129.688522,331.544304 130.131134,331.747973 C130.573745,331.950505 130.9515,332.272507 131.357702,332.541033 L131.436211,332.608164 L131.834447,332.960887 L132.516001,333.574172 C133.520694,334.484426 134.510596,335.41061 135.48912,336.34931 C137.317594,338.10155 139.105106,339.897027 140.847106,341.735742 C142.744986,343.73944 144.590528,345.795477 146.356422,347.915233 C147.501067,349.288579 148.613853,350.688096 149.679989,352.121747 C150.705163,353.496231 151.689376,354.902574 152.61556,356.346466 C153.440478,357.634476 154.222159,358.952069 154.933295,360.304935 C155.557958,361.489404 156.13028,362.703456 156.627507,363.947091 C157.487697,366.099844 158.131702,368.360688 158.347888,370.673873 C158.387712,371.10283 158.412744,371.531788 158.421846,371.960745 C158.429811,372.339639 158.42526,372.717394 158.416157,373.09515 C158.39909,373.73688 158.361542,374.377471 158.304651,375.016925 C158.07026,377.581567 157.484284,380.116626 156.514863,382.504907 C155.852653,384.1354 155.015218,385.695349 154.017352,387.14493 C153.201536,388.330536 152.281041,389.442185 151.270659,390.467359 C150.469634,391.280899 149.610582,392.040961 148.707154,392.74072 C147.984639,393.300526 147.232542,393.823923 146.457687,394.308633 C145.826198,394.702318 145.17878,395.072109 144.517707,395.418006 C140.653677,397.43422 136.369791,398.578865 132.04153,399.005547 C131.373631,399.07154 130.704594,399.119329 130.033281,399.152325 C129.293699,399.188736 128.554117,399.203527 127.813398,399.201252 C126.28417,399.194425 124.754942,399.105675 123.234817,398.927037 C120.703172,398.630067 118.196558,398.083914 115.783246,397.257858 C113.710141,396.547859 111.706443,395.628502 109.832456,394.488408 C107.829896,393.269805 105.980942,391.799744 104.369791,390.09643 C103.300242,388.965439 102.33651,387.733182 101.501351,386.419002 C100.711705,385.17878 100.036979,383.866875 99.4839994,382.504907 C98.5623667,380.233822 97.9854928,377.83075 97.7317594,375.394681 C97.6509743,374.631205 97.6020481,373.863177 97.583843,373.09515 C97.5667757,372.481866 97.5679135,371.86972 97.6054615,371.256436 C97.6748684,370.134547 97.8489546,369.021761 98.1026881,367.92718 C98.3825914,366.72223 98.7580714,365.537761 99.2018205,364.381738 C99.6512587,363.208647 100.170104,362.061727 100.736737,360.939838 C101.425117,359.581283 102.18518,358.256862 102.993031,356.963163 C103.857773,355.580714 104.778268,354.231262 105.737448,352.91253 C107.214337,350.879249 108.784526,348.911961 110.413881,346.999289 C112.128573,344.984213 113.909259,343.027165 115.740009,341.117906 C117.368226,339.418006 119.03513,337.756791 120.738444,336.130849 C121.447305,335.452709 122.162992,334.781397 122.885507,334.119186 C123.439625,333.610582 123.998293,333.10539 124.563789,332.608164 L124.641161,332.541033 C125.863177,331.750249 125.874556,331.745698 127.268383,331.333807 L128.730479,331.333807 L128.730479,331.333807 Z M131.04025,0.0557530934 L134.474186,0.13540037 L135.996587,0.230977101 L145.310767,0.983074954 L158.165837,2.78196558 L159.101124,2.9890485 L171.569336,6.05546864 L175.085194,7.08974541 L179.077798,8.44830038 L183.938558,10.2676717 L187.709287,11.8446878 L193.570189,14.5902432 L196.849381,16.2446309 L203.485137,20.1086616 L205.515005,21.3284028 L214.568625,27.868582 L216.779405,29.7937704 L223.018063,35.4339354 L228.374911,41.1241644 L229.844972,42.7455554 L236.129142,51.0095292 L237.071256,52.4909686 L241.911535,60.5774428 L243.27009,63.1557389 L246.000853,69.1668326 L248.841985,76.168966 L249.784099,78.8894894 L252.814109,89.8227848 L255.179633,104.607595 L255.591523,109.202105 L255.969279,115.803726 L256,116.764045 L255.862324,124.143934 L255.774712,125.532072 L255.414024,128.4483 L253.334092,140.22927 L253.020054,141.662921 L248.227564,156.463661 L243.777557,167.131845 L238.111222,178.353008 L227.959607,195.877685 L222.735884,203.769592 L216.41189,213.136112 L211.852653,219.326981 L202.953776,231.117053 L196.85507,238.717679 L187.829896,249.607737 L181.526383,256.904565 L171.727493,267.837861 L165.55938,274.538472 L147.330394,293.395534 L146.917366,293.818802 L137.15261,303.326412 L131.753662,308.410183 L131.421419,308.715119 L131.002702,309.107666 L130.467928,309.484284 L130.077656,309.659508 L129.010383,310.013369 L126.463945,309.905277 L126.23752,309.829043 L124.852795,308.962025 L124.675295,308.797042 L124.496658,308.634334 L123.768454,307.963021 C123.097141,307.339497 122.428104,306.715972 121.760205,306.089034 L121.608875,305.944531 L103.722372,288.350448 L98.1868866,282.665908 L84.0335656,267.590954 L80.6599346,263.935144 L63.5949367,244.179206 L58.8195136,238.316029 L43.793486,218.934433 L42.3029441,216.958043 L30.8838003,200.301522 L27.7877969,195.350875 L19.5898165,181.402361 L17.2026739,177.076376 L10.0366946,162.099275 L8.90228986,159.164841 L4.78680131,147.700185 L3.3633907,142.824634 L2.20736737,138.104964 L1.22884369,132.951785 L0.444886929,127.18646 L0.142227279,123.677429 L0,117.100839 L0.0295832741,115.981226 L0.199118191,112.433509 L1.62821789,98.0878965 L1.96614991,96.2366662 L5.22713696,81.9172237 L5.29654388,81.6509743 L5.83700754,80.0523396 L8.11605746,73.433651 L8.82036695,71.7656094 L12.5307922,63.6711705 L15.0533352,58.9526383 L18.6135685,53.1088039 L22.1681126,47.9180771 L24.6417295,44.6752951 L27.5534063,41.2106386 L30.7336083,37.7266392 L33.3266961,35.1255867 L40.1661215,29.1588679 L45.2737875,25.0217608 L51.3167402,20.964301 L55.6131418,18.2369506 L64.7293415,13.477457 L77.6629213,8.15815673 L78.3114777,7.90100981 L89.8102688,4.57175366 L94.3217181,3.57274925 L100.529654,2.33480302 L104.739582,1.69876262 L111.226284,0.897738586 L115.606884,0.513156023 L124.339639,0.0420992746 L124.35443,0.0420992746 L124.393116,0.0409614564 L127.637036,0.0068269094 L127.964728,0.00796472763 L127.995449,0.00227563647 L128.242355,0 L131.04025,0.0557530934 L131.04025,0.0557530934 Z M123.668326,20.3976675 C122.366662,20.5342057 121.072963,20.7128431 119.788366,20.9597497 C117.865453,21.3284028 115.967572,21.8335941 114.115204,22.4673588 C112.116057,23.148912 110.171526,23.9806571 108.292988,24.9443891 C107.047077,25.5849808 105.833025,26.2824634 104.650832,27.0345612 C95.8509458,32.6292135 89.1378182,40.995591 84.1848955,50.071967 C83.3577016,51.5875409 82.5817096,53.1315602 81.8478168,54.6937847 C80.9739724,56.5552553 80.1604324,58.4451714 79.4015076,60.3578438 C78.4138814,62.8530792 77.5184184,65.3870004 76.7094297,67.9482293 C75.71839,71.0874698 74.8559238,74.2665339 74.1072394,77.4729057 C73.1651259,81.5076092 72.400512,85.5832741 71.7849524,89.6794197 C71.0032712,94.8883516 70.466221,100.132556 70.128289,105.388138 C69.9143792,108.726497 69.7846679,112.070545 69.7209501,115.41573 C69.6458541,119.262694 69.6742995,123.108519 69.9451003,126.947518 C70.5800028,135.936282 72.1308491,144.837434 74.1584412,153.610013 C76.7117053,164.666193 80.0386858,175.544873 83.7957616,186.247191 C88.5154317,199.693927 93.9268952,212.892618 99.7764187,225.885365 C107.006116,241.949083 114.920779,257.68966 123.329256,273.167402 L123.967572,274.33139 L123.967572,20.369222 L123.668326,20.3976675 L123.668326,20.3976675 Z M156.918788,21.0359835 C158.011094,21.7710141 159.077229,22.5458683 160.116057,23.3537192 C169.647561,30.7745698 176.696345,40.9648699 181.735742,51.8526525 C182.663064,53.8552126 183.52553,55.8884938 184.327692,57.9445314 C185.377898,60.6343337 186.33139,63.3650974 187.179064,66.1243066 C191.126156,78.9702745 193.173091,92.3248471 193.979804,105.720381 C194.18006,109.046224 194.304082,112.376618 194.356422,115.70815 C194.398521,118.31034 194.405348,120.914806 194.316598,123.518134 C194.218746,126.366093 194.009387,129.210639 193.720381,132.046082 C193.055895,138.560091 191.970417,145.036552 190.593657,151.43678 C188.988195,158.905419 187.039113,166.289859 184.830607,173.601479 C181.881382,183.365097 178.488408,192.989902 174.799602,202.497511 C171.438487,211.156308 167.832741,219.71839 164.035841,228.195136 C157.215759,243.425971 149.782392,258.375764 141.895036,273.080927 L143.322998,271.619969 C154.45086,260.157588 165.225999,248.344759 175.536908,236.139383 C185.397241,224.466505 194.841132,212.424975 203.576163,199.883943 C210.663632,189.708434 217.282321,179.19158 223.02489,168.192291 C225.612288,163.239369 228.001707,158.182904 230.119186,153.01152 C231.8225,148.856208 233.346039,144.620111 234.59195,140.305504 C236.114351,135.033992 237.260134,129.638458 237.693642,124.162139 C237.887072,121.719243 237.901863,119.267245 237.848386,116.817522 C237.791495,114.188024 237.656094,111.558527 237.435358,108.935855 C236.593372,98.9321576 234.479306,89.0058313 230.839425,79.6381738 C228.37036,73.283459 225.200398,67.1995449 221.368226,61.5582421 C214.876973,52.0039824 206.483288,43.8276205 196.906272,37.3875693 C189.838145,32.6349026 182.154459,28.8254871 174.157872,25.9069834 C168.540464,23.8566349 162.772863,22.2454843 156.918788,21.0359835 L156.918788,21.0359835 Z" fill="url(#linearGradient-1)"></path>
    </g>
</svg>
